X: 10844
T: COTILLION No. 8. tune 6
C:
%R: reel, polka
B: Elias Howe "The Musician's Companion" Part 1 1842 p.84 #4 (and p.85 #1)
S: http://imslp.org/wiki/The_Musician's_Companion_(Howe,_Elias)
Z: 2015 John Chambers <jc:trillian.mit.edu>
M: 2/4
L: 1/16
K: D
% - - - - - - - - - - - - - - - - - - - - - - - - -
F>G |\
A2 AB A2d2 | A2f2 d4 | edcB ABcA | dcde d2 FG |\
A2 AB A2d2 | A2f2 d4 | edcB ABcA | d4- d2 H|]
g2 (gf) e2e2 | f2 (fe) d2d2 | c2d2e2f2 | edcB A4 |\
g2 (gf) e2e2 | f2 (fe) d2d2 | c2a2a2^g2 | "^D.C."a6 |]
[K:=f=c]
f2(fg) e2(ef) | d2(de) ^c2A2 | g2(ga) f2(fg) | e2(ef) d4 |\
gfed ^cdcd | efef gaga | bagf gfed | "^D.C."a4 |]
% - - - - - - - - - - Dance description - - - - - - - - - -
%%begintext align
%% First 2 forward and back,
%% partners the same,
%% balance 4 and turn,
%% ladies chain,
%% promenade 4,
%% other couples the same.
%%endtext
%- - - - - - - - - - - - - - - - - - - - - - - - -
%%sep 1 1 300

% (Continued from previous page)


